symbols/web/sign_language/materialsymbolsrounded/sign_language_wght100gradN25fill1_40px.svg

<svg xmlns="http://www.w3.org/2000/svg" height="40" width="40"><path d="M10.708 35.75q-.375 0-.583-.208-.208-.209-.208-.584 0-.333.208-.583.208-.25.583-.25h7.334v-2.208H8.583q-.375 0-.583-.209-.208-.208-.208-.583 0-.333.208-.583.208-.25.583-.25h9.459v-2.209H7.167q-.375 0-.584-.208-.208-.208-.208-.583 0-.334.208-.584.209-.25.584-.25h10.875V24.25h-8.75q-.375 0-.584-.208-.208-.209-.208-.584 0-.333.208-.583.209-.25.584-.25h11.791L19 18.667q-.208-.417-.062-.813.145-.396.52-.687.292-.209.604-.146.313.062.563.312l7.5 7.125q.375.334.583.834.209.5.209 1.041v6.834q0 1.125-.771 1.854-.771.729-1.854.729Zm6.709-21-3.5-3.667q-.209-.208-.229-.583-.021-.375.27-.542.209-.25.563-.25t.562.209l4 4.166q-.625.167-1 .355-.375.187-.666.312Zm-1.25 4.208-3.542-3.708q-.208-.25-.229-.604-.021-.354.271-.521.25-.25.583-.25.333 0 .542.25l2.291 2.417q-.25.5-.291 1.041-.042.542.041 1 .042.125.125.188.084.062.209.187Zm14.75 3.917q-.125-.125-.271-.25-.146-.125-.271-.292l-7.708-7.375q-.209-.416-.459-.687-.25-.271-.5-.521l-6-6.333q-.208-.209-.208-.563t.25-.562q.208-.25.562-.25.355 0 .563.208l7.5 7.875 1.625-1.5-6.042-6.333q-.208-.209-.208-.563t.25-.562q.25-.25.583-.25.334 0 .542.25l8.125 8.541 1.5-4.208q.167-.458.583-.625.417-.167.875-.083.292.083.438.312.146.229.146.521v10.5q0 .542-.271 1.063-.271.52-.646.854Z"/></svg>

<svg xmlns="http://www.w3.org/2000/svg" height="40" width="40"><path d="M10.708 35.75Q10.333 35.75 10.125 35.542Q9.917 35.333 9.917 34.958Q9.917 34.625 10.125 34.375Q10.333 34.125 10.708 34.125H18.042V31.917H8.583Q8.208 31.917 8 31.708Q7.792 31.5 7.792 31.125Q7.792 30.792 8 30.542Q8.208 30.292 8.583 30.292H18.042V28.083H7.167Q6.792 28.083 6.583 27.875Q6.375 27.667 6.375 27.292Q6.375 26.958 6.583 26.708Q6.792 26.458 7.167 26.458H18.042V24.25H9.292Q8.917 24.25 8.708 24.042Q8.5 23.833 8.5 23.458Q8.5 23.125 8.708 22.875Q8.917 22.625 9.292 22.625H21.083L19 18.667Q18.792 18.25 18.938 17.854Q19.083 17.458 19.458 17.167Q19.75 16.958 20.062 17.021Q20.375 17.083 20.625 17.333L28.125 24.458Q28.5 24.792 28.708 25.292Q28.917 25.792 28.917 26.333V33.167Q28.917 34.292 28.146 35.021Q27.375 35.75 26.292 35.75ZM17.417 14.75 13.917 11.083Q13.708 10.875 13.688 10.5Q13.667 10.125 13.958 9.958Q14.167 9.708 14.521 9.708Q14.875 9.708 15.083 9.917L19.083 14.083Q18.458 14.25 18.083 14.438Q17.708 14.625 17.417 14.75ZM16.167 18.958 12.625 15.25Q12.417 15 12.396 14.646Q12.375 14.292 12.667 14.125Q12.917 13.875 13.25 13.875Q13.583 13.875 13.792 14.125L16.083 16.542Q15.833 17.042 15.792 17.583Q15.75 18.125 15.833 18.583Q15.875 18.708 15.958 18.771Q16.042 18.833 16.167 18.958ZM30.917 22.875Q30.792 22.75 30.646 22.625Q30.5 22.5 30.375 22.333L22.667 14.958Q22.458 14.542 22.208 14.271Q21.958 14 21.708 13.75L15.708 7.417Q15.5 7.208 15.5 6.854Q15.5 6.5 15.75 6.292Q15.958 6.042 16.312 6.042Q16.667 6.042 16.875 6.25L24.375 14.125L26 12.625L19.958 6.292Q19.75 6.083 19.75 5.729Q19.75 5.375 20 5.167Q20.25 4.917 20.583 4.917Q20.917 4.917 21.125 5.167L29.25 13.708L30.75 9.5Q30.917 9.042 31.333 8.875Q31.75 8.708 32.208 8.792Q32.5 8.875 32.646 9.104Q32.792 9.333 32.792 9.625V20.125Q32.792 20.667 32.521 21.188Q32.25 21.708 31.875 22.042Z"/></svg>
